X:03
T: Bluegrass Stomp
C: Bill Monroe
Z: Transcribed by John Baldry; TablEdited by Mike Stangeland for MandoZine
S: MandoZine TablEdit Archives
L: 1/8
Q: 420
M: 4/4
K: D
 z4 zD FA |: "D"d2 cd AD zD | d2 cd AD zD | d2 cd AD zD | "D7"=c2 B=c AD zD |
 "G"B,D E=F =zE DD | AA zA =FE DB, |
 "D"D2 [(3D=C][D=C][D=C] [(3DB,][DB,][DB,] [(3D^A,][D^A,][D^A,] | [D2A,2] [D2A,2] [D2A,2] AA |
 "A"=c2 B=c AD2D | dd cd A=F ^FF | "D"D2 DD (3=C=C=C (3B,B,B, | A,2 [D2A,2] [D2A,2] DD |
 [(3dA][dA][dA] [(3dA][dA][dA] [(3dA][dA][dA] [(3dA][dA][dA] |
 [(3dA][dA][dA] [(3dA][dA][dA] [(3dA][dA][dA] [(3e=c][e=c][e=c] |
 [(3fd][fd][fd] [(3fd][fd][fd] [(3fd][fd][fd] [(3e=c][e=c][e=c]|
 "D7"[(3dA][dA][dA] [(3dA][dA][dA] [(3dA][dA][dA] [(3FD][FD][FD] |
 "G"[(3BG][BG][BG] [(3BG][BG][BG] [(3BG][BG][BG] [(3BG][BG][BG] | [(3BG][BG][BG] [(3BG][BG][BG] (3DDD (3FFF |
 "D7"[(3dA][dA][dA] [(3dA][dA][dA] [(3dA][dA][dA] [(3AF][AF][AF] | [(3FD][FD][FD] [(3FD][FD][FD] F2 G2 |
 "A"[(3cA][cA][cA] [(3cA][cA][cA] [(3cA][cA][cA] [(3cA][cA][cA] | A2 ^GA ^GA ^GA |
 "D"D2 DD DD FA | d2 A2 F2 D2 | DD FA d3d | d2 dd dA zA | d2 dd =cA F^G | "D7"AA ^GA FD2D |
 "G"[B2G2] [B2G2] [B2G2] [B2G2] | "D"[B2G2] [B2G2] [BG][BG] [B2G2] | DD FA df ab | "A"af dd A2 A2 |
 A,A, EA c4 | "D"G4 A2 GG | =F^F =F^F dD FA | D2 [d2F2D2] D2 [d2F2D2] :|
